svg/nature/leaf_3_fill.svg

<?xml version="1.0" encoding="UTF-8"?>
<svg width="24px" height="24px" viewBox="0 0 24 24" version="1.1" xmlns="http://www.w3.org/2000/svg" xmlns:xlink="http://www.w3.org/1999/xlink">
    <title>leaf_3_fill</title>
    <g id="Icon" stroke="none" stroke-width="1" fill="none" fill-rule="evenodd">
        <g id="Nature" transform="translate(-480.000000, -50.000000)">
            <g id="leaf_3_fill" transform="translate(480.000000, 50.000000)">
                <path d="M24,0 L24,24 L0,24 L0,0 L24,0 Z M12.5935,23.2578 L12.5819,23.2595 L12.5109,23.295 L12.4919,23.2987 L12.4767,23.295 L12.4057,23.2595 C12.3958,23.2564 12.387,23.259 12.3821,23.2649 L12.378,23.2758 L12.3609,23.7031 L12.3659,23.7235 L12.3769,23.7357 L12.4805,23.8097 L12.4953,23.8136 L12.5071,23.8097 L12.6107,23.7357 L12.6233,23.7197 L12.6267,23.7031 L12.6096,23.2758 C12.6076,23.2657 12.601,23.2593 12.5935,23.2578 Z M12.8584,23.1453 L12.8445,23.1473 L12.6598,23.2397 L12.6499,23.2499 L12.6472,23.2611 L12.6651,23.6906 L12.6699,23.7034 L12.6784,23.7105 L12.8793,23.8032 C12.8914,23.8069 12.9022,23.803 12.9078,23.7952 L12.9118,23.7812 L12.8777,23.1665 C12.8753,23.1546 12.8674,23.147 12.8584,23.1453 Z M12.143,23.1473 C12.1332,23.1424 12.1222,23.1453 12.1156,23.1526 L12.1099,23.1665 L12.0758,23.7812 C12.0751,23.7927 12.0828,23.8019 12.0926,23.8046 L12.1083,23.8032 L12.3092,23.7105 L12.3186,23.7024 L12.3225,23.6906 L12.3404,23.2611 L12.3372,23.2485 L12.3278,23.2397 L12.143,23.1473 Z" id="MingCute" fill-rule="nonzero"></path>
                <path d="M12.7071,13.2929 L16.0858,16.6716 C16.6711,17.2569 17,18.0509 17,18.8787 C17,20.6025 15.6025,22 13.8787,22 L13.6777,22 C13.0629,22 12.4902,21.8335 12,21.5462 C11.5098,21.8335 10.9371,22 10.3223,22 L10.1213,22 C8.39746,22 7,20.6025 7,18.8787 C7,18.0509 7.32885,17.2569 7.91421,16.6716 L11.2929,13.2929 C11.6834,12.9024 12.3166,12.9024 12.7071,13.2929 Z M18.8787,7 C20.5430586,7 21.9032327,8.30274511 21.9950588,9.9441799 L22,10.1213 L22,10.3223 C22,10.9371 21.8335,11.5098 21.5462,12 C21.7975875,12.428925 21.9564875,12.9210141 21.9922846,13.4492023 L22,13.6777 L22,13.8787 C22,15.6025 20.6025,17 18.8787,17 C18.1198833,17 17.3894681,16.7236326 16.8221717,16.2267414 L16.6716,16.0858 L13.2929,12.7071 C12.9324385,12.3466385 12.9047107,11.7793793 13.2097166,11.3871027 L13.2929,11.2929 L16.6716,7.91421 C17.2569,7.32885 18.0509,7 18.8787,7 Z M5.12132,7 C5.88016417,7 6.61051451,7.27632535 7.17784607,7.77325582 L7.32843,7.91421 L10.7071,11.2929 C11.0675615,11.6533615 11.0952893,12.2206207 10.7902834,12.6128973 L10.7071,12.7071 L7.32843,16.0858 C6.74306,16.6711 5.94915,17 5.12132,17 C3.45690345,17 2.09676466,15.6972176 2.00494108,14.0558162 L2,13.8787 L2,13.6777 C2,13.0629 2.1665,12.4902 2.45385,12 C2.20241875,11.571075 2.04351328,11.0789859 2.00771553,10.5507977 L2,10.3223 L2,10.1213 C2,8.39746 3.39746,7 5.12132,7 Z M10.3223,2 C10.9371,2 11.5098,2.1665 12,2.45385 C12.428925,2.20241875 12.9210141,2.04351328 13.4492023,2.00771553 L13.6777,2 L13.8787,2 C15.6025,2 17,3.39746 17,5.12132 C17,5.88016417 16.7236326,6.61051451 16.2267414,7.17784607 L16.0858,7.32843 L12.7071,10.7071 C12.3466385,11.0675615 11.7793793,11.0952893 11.3871027,10.7902834 L11.2929,10.7071 L7.91421,7.32843 C7.32885,6.74306 7,5.94915 7,5.12132 C7,3.45690345 8.30274511,2.09676466 9.9441799,2.00494108 L10.1213,2 L10.3223,2 Z" id="形状" fill="#09244B"></path>
            </g>
        </g>
    </g>
</svg>

<svg xmlns="http://www.w3.org/2000/svg" width="24" height="24"><g fill="none" fill-rule="evenodd"><path d="M24 0v24H0V0h24ZM12.594 23.258l-.012.002-.071.035-.02.004-.014-.004-.071-.036c-.01-.003-.019 0-.024.006l-.004.01-.017.428.005.02.01.013.104.074.015.004.012-.004.104-.074.012-.016.004-.017-.017-.427c-.002-.01-.009-.017-.016-.018Zm.264-.113-.014.002-.184.093-.01.01-.003.011.018.43.005.012.008.008.201.092c.012.004.023 0 .029-.008l.004-.014-.034-.614c-.003-.012-.01-.02-.02-.022Zm-.715.002a.023.023 0 0 0-.027.006l-.006.014-.034.614c0 .012.007.02.017.024l.015-.002.201-.093.01-.008.003-.011.018-.43-.003-.012-.01-.01-.184-.092Z"/><path fill="#09244B" d="m12.707 13.293 3.379 3.379A3.121 3.121 0 0 1 13.879 22h-.201A3.306 3.306 0 0 1 12 21.546a3.306 3.306 0 0 1-1.678.454h-.2a3.121 3.121 0 0 1-2.208-5.328l3.379-3.38a1 1 0 0 1 1.414 0ZM18.88 7a3.121 3.121 0 0 1 3.116 2.944l.005.177v.201c0 .615-.166 1.188-.454 1.678.252.429.41.921.446 1.45l.008.228v.2a3.121 3.121 0 0 1-5.178 2.349l-.15-.141-3.38-3.379a1 1 0 0 1-.082-1.32l.083-.094 3.379-3.379A3.121 3.121 0 0 1 18.879 7ZM5.12 7c.76 0 1.49.276 2.057.773l.15.141 3.38 3.379a1 1 0 0 1 .082 1.32l-.083.094-3.379 3.379a3.122 3.122 0 0 1-5.323-2.03L2 13.879v-.201c0-.615.167-1.188.454-1.678a3.3 3.3 0 0 1-.446-1.45L2 10.323v-.2A3.121 3.121 0 0 1 5.121 7Zm5.201-5c.615 0 1.188.167 1.678.454a3.3 3.3 0 0 1 1.45-.446L13.677 2h.2a3.121 3.121 0 0 1 2.349 5.178l-.141.15-3.379 3.38a1 1 0 0 1-1.32.082l-.094-.083-3.379-3.379a3.121 3.121 0 0 1 2.03-5.323L10.121 2h.201Z"/></g></svg>
